src/assets/filled/Box2.svg

<svg width="24" height="24" viewBox="0 0 24 24"  xmlns="http://www.w3.org/2000/svg">
<path d="M5.33012 19.4203C5.22012 19.4203 5.10012 19.3903 5.00012 19.3403L2.78012 18.2303C2.53012 18.1003 2.37012 17.8403 2.37012 17.5603V14.7803C2.37012 14.3703 2.71012 14.0303 3.12012 14.0303C3.53012 14.0303 3.87012 14.3703 3.87012 14.7803V17.0903L5.67012 18.0003C6.04012 18.1803 6.19012 18.6303 6.00012 19.0003C5.87012 19.2603 5.61012 19.4203 5.33012 19.4203Z" />
<path d="M12 22.7497C11.94 22.7497 11.88 22.7397 11.83 22.7297C11.77 22.7197 11.71 22.6897 11.65 22.6597L9.43996 21.5597C9.06996 21.3697 8.91996 20.9197 9.09996 20.5497C9.28996 20.1797 9.73996 20.0297 10.11 20.2097L11.25 20.7797V19.2197C11.25 18.8097 11.59 18.4697 12 18.4697C12.41 18.4697 12.75 18.8097 12.75 19.2197V20.7797L13.89 20.2097C14.26 20.0297 14.71 20.1797 14.9 20.5497C15.09 20.9197 14.94 21.3697 14.56 21.5597L12.35 22.6597C12.29 22.6897 12.23 22.7097 12.17 22.7297C12.11 22.7397 12.06 22.7497 12 22.7497Z" />
<path d="M18.6699 19.42C18.3999 19.42 18.1299 19.27 17.9999 19.01C17.8099 18.64 17.9599 18.19 18.3399 18L20.1499 17.1V14.79C20.1499 14.38 20.4899 14.04 20.8999 14.04C21.3099 14.04 21.6499 14.38 21.6499 14.79V17.57C21.6499 17.85 21.4899 18.11 21.2399 18.24L18.9999 19.34C18.8899 19.39 18.7799 19.42 18.6699 19.42Z" />
<path d="M12 14.42C11.59 14.42 11.25 14.08 11.25 13.67V11.36L9.43996 10.46C9.06996 10.27 8.91996 9.82004 9.09996 9.45005C9.28996 9.08005 9.73996 8.93004 10.11 9.11004L12 10.05L13.89 9.11004C14.26 8.93004 14.71 9.07005 14.9 9.45005C15.09 9.82004 14.94 10.27 14.56 10.46L12.75 11.36V13.67C12.75 14.08 12.41 14.42 12 14.42Z" />
<path d="M3.11011 9.97002C2.70011 9.97002 2.36011 9.63002 2.36011 9.22002V6.46002V6.45002C2.36011 6.39002 2.37011 6.33002 2.38011 6.28002C2.40011 6.19002 2.43011 6.12002 2.47011 6.05002C2.50011 6.00002 2.54011 5.96002 2.58011 5.92002C2.62011 5.88002 2.67011 5.84002 2.72011 5.81002C2.74011 5.80002 2.77011 5.78002 2.79011 5.77002L5.00011 4.66002C5.37011 4.48002 5.82011 4.63002 6.00011 5.00002C6.19011 5.37002 6.04011 5.82002 5.67011 6.00002L4.79011 6.44002L5.67011 6.88002C6.04011 7.07002 6.19011 7.52002 6.00011 7.89002C5.82011 8.26002 5.37011 8.41002 5.00011 8.23002L3.86011 7.66002V9.22002C3.86011 9.64002 3.53011 9.97002 3.11011 9.97002Z" />
<path d="M14.2201 3.85957C14.1101 3.85957 13.9901 3.82957 13.8901 3.77957L12.0001 2.83957L10.1101 3.77957C9.74005 3.96957 9.29005 3.81957 9.11005 3.44957C8.92005 3.07957 9.07005 2.62957 9.44005 2.43957L11.6601 1.32957C11.8701 1.21957 12.1201 1.21957 12.3301 1.32957L14.5501 2.43957C14.9201 2.62957 15.0701 3.07957 14.8901 3.44957C14.7601 3.70957 14.5001 3.85957 14.2201 3.85957Z" />
<path d="M20.8899 9.97002C20.4799 9.97002 20.1399 9.63002 20.1399 9.22002V7.66002L18.9999 8.23002C18.6299 8.41002 18.1799 8.26002 17.9999 7.89002C17.8099 7.52002 17.9599 7.07002 18.3399 6.88002L19.2199 6.44002L18.3299 6.00002C17.9599 5.82002 17.8099 5.37002 17.9999 5.00002C18.1899 4.63002 18.6299 4.48002 18.9999 4.66002L21.2099 5.76002C21.2299 5.77002 21.2599 5.78002 21.2799 5.80002C21.3399 5.83002 21.3899 5.88002 21.4399 5.93002C21.4699 5.97002 21.4999 6.01002 21.5299 6.05002C21.5699 6.12002 21.5999 6.19002 21.6199 6.27002C21.6299 6.33002 21.6399 6.39002 21.6399 6.44002V6.45002V9.21002C21.6399 9.64002 21.2999 9.97002 20.8899 9.97002Z" />
</svg>

<?xml version="1.0" encoding="UTF-8"?>
<svg width="24" height="24" viewBox="0 0 24 24" xmlns="http://www.w3.org/2000/svg">
 <path d="m5.3301 19.42c-0.11 0-0.23-0.03-0.33-0.08l-2.22-1.11c-0.25-0.13-0.41-0.39-0.41-0.67v-2.78c0-0.41 0.34-0.75 0.75-0.75s0.75 0.34 0.75 0.75v2.31l1.8 0.91c0.37 0.18 0.52 0.63 0.33 1-0.13 0.26-0.39 0.42-0.67 0.42z"/>
 <path d="m12 22.75c-0.06 0-0.12-0.01-0.17-0.02-0.06-0.01-0.12-0.04-0.18-0.07l-2.21-1.1c-0.37-0.19-0.52-0.64-0.34-1.01 0.19-0.37 0.64-0.52 1.01-0.34l1.14 0.57v-1.56c0-0.41 0.34-0.75 0.75-0.75s0.75 0.34 0.75 0.75v1.56l1.14-0.57c0.37-0.18 0.82-0.03 1.01 0.34s0.04 0.82-0.34 1.01l-2.21 1.1c-0.06 0.03-0.12 0.05-0.18 0.07-0.06 0.01-0.11 0.02-0.17 0.02z"/>
 <path d="m18.67 19.42c-0.27 0-0.54-0.15-0.67-0.41-0.19-0.37-0.04-0.82 0.34-1.01l1.81-0.9v-2.31c0-0.41 0.34-0.75 0.75-0.75s0.75 0.34 0.75 0.75v2.78c0 0.28-0.16 0.54-0.41 0.67l-2.24 1.1c-0.11 0.05-0.22 0.08-0.33 0.08z"/>
 <path d="m12 14.42c-0.41 0-0.75-0.34-0.75-0.75v-2.31l-1.81-0.9c-0.37-0.19-0.52-0.63996-0.34-1.01 0.19-0.37 0.64-0.52001 1.01-0.34001l1.89 0.93996 1.89-0.93996c0.37-0.18 0.82-0.03999 1.01 0.34001 0.19 0.36999 0.04 0.81995-0.34 1.01l-1.81 0.9v2.31c0 0.41-0.34 0.75-0.75 0.75z"/>
 <path d="m3.1101 9.97c-0.41 0-0.75-0.34-0.75-0.75v-2.77c0-0.06 0.01-0.12 0.02-0.17 0.02-0.09 0.05-0.16 0.09-0.23 0.03-0.05 0.07-0.09 0.11-0.13s0.09-0.08 0.14-0.11c0.02-0.01 0.05-0.03 0.07-0.04l2.21-1.11c0.37-0.18 0.82-0.03 1 0.34 0.19 0.37 0.04 0.82-0.33 1l-0.88 0.44 0.88 0.44c0.37 0.19 0.52 0.64 0.33 1.01-0.18 0.37-0.63 0.52-1 0.34l-1.14-0.57v1.56c0 0.42-0.33 0.75-0.75 0.75z"/>
 <path d="m14.22 3.8596c-0.11 0-0.23-0.03-0.33-0.08l-1.89-0.94-1.89 0.94c-0.37005 0.19-0.82005 0.04-1-0.33-0.19-0.37-0.04-0.82 0.33-1.01l2.22-1.11c0.21-0.11 0.46-0.11 0.67 0l2.22 1.11c0.37 0.19 0.52 0.64 0.34 1.01-0.13 0.26-0.39 0.41-0.67 0.41z"/>
 <path d="m20.89 9.97c-0.41 0-0.75-0.34-0.75-0.75v-1.56l-1.14 0.57c-0.37 0.18-0.82 0.03-1-0.34-0.19-0.37-0.04-0.82 0.34-1.01l0.88-0.44-0.89-0.44c-0.37-0.18-0.52-0.63-0.33-1s0.63-0.52 1-0.34l2.21 1.1c0.02 0.01 0.05 0.02 0.07 0.04 0.06 0.03 0.11 0.08 0.16 0.13 0.03 0.04 0.06 0.08 0.09 0.12 0.04 0.07 0.07 0.14 0.09 0.22 0.01 0.06 0.02 0.12 0.02 0.17v2.77c0 0.43-0.34 0.76-0.75 0.76z"/>
</svg>
